src/assets/fleet-icons/settings.svg

<svg width="20" height="20" viewBox="0 0 20 20" fill="none" xmlns="http://www.w3.org/2000/svg">
    <path
        d="M4.68398 12.4689L5.60132 12.6126C6.27849 12.7186 6.7621 13.3388 6.71223 14.0376L6.64464 14.9847C6.62496 15.2606 6.77194 15.5203 7.01538 15.6405L7.69387 15.9748C7.93731 16.0949 8.228 16.05 8.42682 15.8627L9.10859 15.2183C9.61122 14.7431 10.3868 14.7431 10.8901 15.2183L11.5719 15.8627C11.7707 16.0506 12.0607 16.0949 12.3048 15.9748L12.9846 15.6398C13.2274 15.5203 13.3737 15.2613 13.3541 14.986L13.2865 14.0376C13.2366 13.3388 13.7202 12.7186 14.3974 12.6126L15.3147 12.4689C15.5818 12.4273 15.797 12.2226 15.8574 11.9527L16.0247 11.2023C16.0851 10.9325 15.9781 10.6526 15.755 10.4968L14.9892 9.9605C14.4243 9.56447 14.2517 8.79121 14.5929 8.18374L15.0555 7.3608C15.19 7.12117 15.1677 6.82114 14.9991 6.605L14.5299 6.0029C14.3613 5.78676 14.0804 5.69748 13.8219 5.77871L12.9348 6.0566C12.2792 6.262 11.5804 5.91765 11.3284 5.26589L10.9885 4.38455C10.8888 4.1268 10.6454 3.95764 10.3744 3.95831L9.62237 3.96033C9.35137 3.96101 9.10859 4.13149 9.01016 4.38991L8.67879 5.26119C8.42944 5.91698 7.72733 6.26401 7.06984 6.05727L6.14595 5.7673C5.88676 5.68541 5.6046 5.77534 5.43596 5.99282L4.97008 6.5956C4.80144 6.81375 4.7811 7.11446 4.91824 7.35409L5.39134 8.17904C5.73977 8.78718 5.56917 9.56783 5.00092 9.96587L4.24435 10.4962C4.02124 10.6526 3.91429 10.9325 3.97466 11.2016L4.14198 11.9521C4.20169 12.2226 4.41692 12.4273 4.68398 12.4689Z"
        stroke="currentColor" stroke-linecap="round" stroke-linejoin="round" />
    <path
        d="M11.3259 8.67411C12.058 9.40626 12.058 10.5937 11.3259 11.3259C10.5937 12.058 9.40626 12.058 8.67411 11.3259C7.94196 10.5937 7.94196 9.40626 8.67411 8.67411C9.40626 7.94196 10.5937 7.94196 11.3259 8.67411Z"
        stroke="currentColor" stroke-linecap="round" stroke-linejoin="round" />
</svg>

<svg width="20" height="20" fill="none" xmlns="http://www.w3.org/2000/svg">
    <path
        d="m4.684 12.469.917.144a1.336 1.336 0 0 1 1.111 1.425l-.067.947a.676.676 0 0 0 .37.655l.679.335a.65.65 0 0 0 .733-.112l.682-.645a1.291 1.291 0 0 1 1.781 0l.682.645a.647.647 0 0 0 .733.112l.68-.335a.673.673 0 0 0 .37-.654l-.069-.948a1.336 1.336 0 0 1 1.111-1.425l.918-.144a.665.665 0 0 0 .542-.516l.168-.75a.68.68 0 0 0-.27-.706l-.766-.537a1.362 1.362 0 0 1-.396-1.776l.463-.823a.687.687 0 0 0-.057-.756l-.47-.602a.65.65 0 0 0-.707-.224l-.887.278a1.306 1.306 0 0 1-1.607-.791l-.34-.881a.659.659 0 0 0-.614-.427l-.752.002a.66.66 0 0 0-.612.43l-.331.871a1.305 1.305 0 0 1-1.61.796l-.923-.29a.65.65 0 0 0-.71.226l-.466.603a.686.686 0 0 0-.052.758l.473.825a1.362 1.362 0 0 1-.39 1.787l-.757.53a.68.68 0 0 0-.27.706l.168.75c.06.27.275.475.542.517Z"
        stroke="currentColor" stroke-linecap="round" stroke-linejoin="round" />
    <path d="M11.326 8.674a1.875 1.875 0 1 1-2.653 2.652 1.875 1.875 0 0 1 2.653-2.652Z" stroke="currentColor"
        stroke-linecap="round" stroke-linejoin="round" />
</svg>
